movekom_app/assets/icons/icon_boiler_5.svg

<svg height="31.758" viewBox="0 0 74.813 31.758" width="74.813" xmlns="http://www.w3.org/2000/svg"><g fill="#323232"><path d="m83.173 15.24-.018-.251c-.293-3.818-2.071-6.211-3.639-8.322-1.452-1.955-2.707-3.643-2.707-6.134a.534.534 0 0 0 -.29-.475.528.528 0 0 0 -.553.042 13.565 13.565 0 0 0 -5.007 7.237 23.624 23.624 0 0 0 -.548 5.41c-2.175-.465-2.668-3.718-2.673-3.754a.533.533 0 0 0 -.761-.4c-.114.055-2.8 1.42-2.956 6.869-.011.181-.011.363-.011.544a9.6 9.6 0 1 0 19.2 0c0-.271-.019-.519-.037-.766zm-9.564 9.295a3.313 3.313 0 0 1 -3.2-3.409c0-.064 0-.129 0-.208a4.324 4.324 0 0 1 .337-1.694 1.948 1.948 0 0 0 1.765 1.276.533.533 0 0 0 .533-.533 10.67 10.67 0 0 1 .2-2.426 5.154 5.154 0 0 1 1.08-2.045 6.873 6.873 0 0 0 1.1 2.017 6.077 6.077 0 0 1 1.367 3.33c.007.092.014.184.014.283a3.313 3.313 0 0 1 -3.196 3.408zm3.371-.7a4.57 4.57 0 0 0 .9-2.712c0-.126-.008-.242-.023-.46a6.983 6.983 0 0 0 -1.557-3.763 4.233 4.233 0 0 1 -1.06-2.5.533.533 0 0 0 -.855-.426 6.231 6.231 0 0 0 -2.174 3.316 9.763 9.763 0 0 0 -.224 1.893 2.533 2.533 0 0 1 -.485-1.145.535.535 0 0 0 -.772-.4c-.134.069-1.315.746-1.383 3.237 0 .084-.005.169-.005.253a4.57 4.57 0 0 0 .9 2.712 8.545 8.545 0 0 1 -5.166-7.84c0-.16 0-.319.01-.5.092-3.2 1.115-4.782 1.782-5.482.466 1.667 1.685 3.845 4.074 3.845a.533.533 0 0 0 .533-.533 23.812 23.812 0 0 1 .518-5.73 12.656 12.656 0 0 1 3.817-6.016c.3 2.284 1.542 3.96 2.85 5.719 1.555 2.093 3.162 4.257 3.431 7.761l.018.255c.017.222.034.443.034.681a8.545 8.545 0 0 1 -5.163 7.837z" transform="translate(-45.15 3.231)"/><circle cx="61.168" cy="30.518" r="1.241"/><circle cx="61.168" cy="26.176" r="1.241"/><circle cx="66.13" cy="30.518" r="1.241"/><circle cx="61.168" cy="21.71" r="1.241"/><circle cx="56.205" cy="30.518" r="1.241"/><circle cx="56.205" cy="26.176" r="1.241"/><circle cx="56.205" cy="21.71" r="1.241"/><circle cx="71.092" cy="21.71" r="1.241"/><circle cx="71.092" cy="26.176" r="1.241"/><path d="m30.458 13.283a6.646 6.646 0 0 0 -5.585-2.86h-3.144a10.873 10.873 0 0 0 -18.529-6.723 10.808 10.808 0 0 0 -3.2 7.685v20.872h2.481v-20.872a8.4 8.4 0 0 1 16.754-.961h-3.046a6.657 6.657 0 0 0 -5.682 3.042 7.582 7.582 0 0 0 -1.265 4.234v1.4h22.578v-1.435a7.559 7.559 0 0 0 -1.362-4.382zm-18.627 3.343a4.977 4.977 0 0 1 .738-1.78 4.139 4.139 0 0 1 3.62-1.942h8.684a4.122 4.122 0 0 1 3.557 1.807 4.96 4.96 0 0 1 .81 1.914z" transform="translate(42.993 -.499)"/><circle cx="71.092" cy="30.518" r="1.241"/><circle cx="66.13" cy="26.176" r="1.241"/><circle cx="66.13" cy="21.71" r="1.241"/><path d="m10.6 13.856h1.627a.7.7 0 0 0 .7-.7v-1.89a.93.93 0 0 0 .7-.9v-.474a2.56 2.56 0 0 0 2.325-2.546v-1.859a.7.7 0 0 0 -.7-.7h-.232v-1.857a.93.93 0 0 0 -1.86 0v1.86h-.93v-1.86a.93.93 0 1 0 -1.86 0v1.86h-.232a.7.7 0 0 0 -.7.7v1.86a2.56 2.56 0 0 0 2.325 2.546v.477a.93.93 0 0 0 .7.9v1.892a.232.232 0 0 1 -.232.232h-1.631a.7.7 0 0 0 -.674.869.71.71 0 0 0 .7.525h4.624a.232.232 0 0 1 .232.232v.232a.232.232 0 0 1 -.232.232h-8.368a1.629 1.629 0 0 1 -1.627-1.627v-4.421h2.092a.7.7 0 0 0 .7-.7v-6.039a.7.7 0 0 0 -.7-.7h-4.647a.7.7 0 0 0 -.7.7v6.042a.7.7 0 0 0 .7.7h2.09v4.417a2.1 2.1 0 0 0 2.092 2.092h8.369a.7.7 0 0 0 .7-.7v-.232a.7.7 0 0 0 -.7-.7h-4.624a.256.256 0 0 1 -.251-.174.224.224 0 0 1 .065-.223.216.216 0 0 1 .159-.066zm3.023-10.926a.465.465 0 1 1 .93 0v2.557h-.93zm-2.79 0a.465.465 0 0 1 .93 0v2.557h-.93zm.932 6.5a2.092 2.092 0 0 1 -1.865-2.083v-1.86a.232.232 0 0 1 .232-.232h.232v.465a.232.232 0 0 0 .232.232h1.404a.232.232 0 0 0 .232-.232v-.465h.93v.465a.232.232 0 0 0 .232.232h1.395a.232.232 0 0 0 .232-.232v-.465h.232a.232.232 0 0 1 .232.232v1.86a2.092 2.092 0 0 1 -1.862 2.078.928.928 0 0 0 -1.855 0zm.463.944v-.93a.465.465 0 1 1 .93 0v.93a.465.465 0 1 1 -.93 0zm-9.528-1.4a.232.232 0 0 1 -.232-.232v-6.042a.232.232 0 0 1 .232-.235h4.647a.232.232 0 0 1 .232.232v6.045a.232.232 0 0 1 -.232.232z" transform="translate(-2 12.876)"/><path d="m11.222 8.97a.232.232 0 0 0 -.2-.109h-1.16v-1.628a.232.232 0 0 0 -.179-.225.229.229 0 0 0 -.26.121l-1.395 2.789a.232.232 0 0 0 .207.337h1.165v1.627a.232.232 0 0 0 .179.225.211.211 0 0 0 .053.007.232.232 0 0 0 .207-.128l1.392-2.786a.234.234 0 0 0 -.009-.228zm-1.36 1.93v-.874a.232.232 0 0 0 -.232-.236h-1.019l.789-1.571v.874a.232.232 0 0 0 .232.232h1.018z" transform="translate(-6.608 9.038)"/></g></svg>

<svg xmlns="http://www.w3.org/2000/svg" width="74.813" height="31.758" viewBox="0 0 74.813 31.758">
  <g id="Grupo_968" data-name="Grupo 968" transform="translate(-937.501 -478.116)">
    <g id="Grupo_180" data-name="Grupo 180" transform="translate(937.501 478.116)">
      <g id="fire_1_" data-name="fire (1)" transform="translate(18.859 3.23)">
        <g id="Grupo_56" data-name="Grupo 56" transform="translate(0 0)">
          <path id="Trazado_280" data-name="Trazado 280" d="M83.173,15.24l-.018-.251c-.293-3.818-2.071-6.211-3.639-8.322C78.064,4.712,76.809,3.024,76.809.533a.534.534,0,0,0-.29-.475A.528.528,0,0,0,75.966.1a13.565,13.565,0,0,0-5.007,7.237,23.624,23.624,0,0,0-.548,5.41c-2.175-.465-2.668-3.718-2.673-3.754a.533.533,0,0,0-.761-.4c-.114.055-2.8,1.42-2.956,6.869-.011.181-.011.363-.011.544a9.6,9.6,0,1,0,19.2,0C83.21,15.735,83.191,15.487,83.173,15.24Zm-9.564,9.295a3.313,3.313,0,0,1-3.2-3.409c0-.064,0-.129,0-.208a4.324,4.324,0,0,1,.337-1.694A1.948,1.948,0,0,0,72.511,20.5a.533.533,0,0,0,.533-.533,10.67,10.67,0,0,1,.2-2.426,5.154,5.154,0,0,1,1.08-2.045,6.873,6.873,0,0,0,1.1,2.017,6.077,6.077,0,0,1,1.367,3.33c.007.092.014.184.014.283A3.313,3.313,0,0,1,73.609,24.534Zm3.371-.7a4.57,4.57,0,0,0,.9-2.712c0-.126-.008-.242-.023-.46A6.983,6.983,0,0,0,76.3,16.9a4.233,4.233,0,0,1-1.06-2.5.533.533,0,0,0-.855-.426,6.231,6.231,0,0,0-2.174,3.316,9.763,9.763,0,0,0-.224,1.893,2.533,2.533,0,0,1-.485-1.145.535.535,0,0,0-.772-.4c-.134.069-1.315.746-1.383,3.237,0,.084-.005.169-.005.253a4.57,4.57,0,0,0,.9,2.712A8.545,8.545,0,0,1,65.076,16c0-.16,0-.319.01-.5.092-3.2,1.115-4.782,1.782-5.482.466,1.667,1.685,3.845,4.074,3.845a.533.533,0,0,0,.533-.533A23.812,23.812,0,0,1,71.993,7.6,12.656,12.656,0,0,1,75.81,1.584c.3,2.284,1.542,3.96,2.85,5.719,1.555,2.093,3.162,4.257,3.431,7.761l.018.255c.017.222.034.443.034.681A8.545,8.545,0,0,1,76.98,23.837Z" transform="translate(-64.009 0.001)" fill="#323232"/>
        </g>
      </g>
      <g id="shower" transform="translate(42.993 0)">
        <g id="Grupo_58" data-name="Grupo 58">
          <g id="Grupo_57" data-name="Grupo 57">
            <circle id="Elipse_32" data-name="Elipse 32" cx="1.241" cy="1.241" r="1.241" transform="translate(16.934 29.277)" fill="#323232"/>
            <circle id="Elipse_33" data-name="Elipse 33" cx="1.241" cy="1.241" r="1.241" transform="translate(16.934 24.935)" fill="#323232"/>
            <circle id="Elipse_34" data-name="Elipse 34" cx="1.241" cy="1.241" r="1.241" transform="translate(21.896 29.277)" fill="#323232"/>
            <circle id="Elipse_35" data-name="Elipse 35" cx="1.241" cy="1.241" r="1.241" transform="translate(16.934 20.469)" fill="#323232"/>
            <circle id="Elipse_36" data-name="Elipse 36" cx="1.241" cy="1.241" r="1.241" transform="translate(11.971 29.277)" fill="#323232"/>
            <circle id="Elipse_37" data-name="Elipse 37" cx="1.241" cy="1.241" r="1.241" transform="translate(11.971 24.935)" fill="#323232"/>
            <circle id="Elipse_38" data-name="Elipse 38" cx="1.241" cy="1.241" r="1.241" transform="translate(11.971 20.469)" fill="#323232"/>
            <circle id="Elipse_39" data-name="Elipse 39" cx="1.241" cy="1.241" r="1.241" transform="translate(26.858 20.469)" fill="#323232"/>
            <circle id="Elipse_40" data-name="Elipse 40" cx="1.241" cy="1.241" r="1.241" transform="translate(26.858 24.935)" fill="#323232"/>
            <path id="Trazado_284" data-name="Trazado 284" d="M30.458,13.283a6.646,6.646,0,0,0-5.585-2.86H21.729A10.873,10.873,0,0,0,3.2,3.7,10.808,10.808,0,0,0,0,11.385V32.257H2.481V11.385a8.4,8.4,0,0,1,16.754-.961H16.189a6.657,6.657,0,0,0-5.682,3.042A7.582,7.582,0,0,0,9.242,17.7v1.4H31.82V17.665A7.559,7.559,0,0,0,30.458,13.283ZM11.831,16.626a4.977,4.977,0,0,1,.738-1.78,4.139,4.139,0,0,1,3.62-1.942h8.684a4.122,4.122,0,0,1,3.557,1.807,4.96,4.96,0,0,1,.81,1.914Z" transform="translate(0 -0.499)" fill="#323232"/>
            <circle id="Elipse_41" data-name="Elipse 41" cx="1.241" cy="1.241" r="1.241" transform="translate(26.858 29.277)" fill="#323232"/>
            <circle id="Elipse_42" data-name="Elipse 42" cx="1.241" cy="1.241" r="1.241" transform="translate(21.896 24.935)" fill="#323232"/>
            <circle id="Elipse_43" data-name="Elipse 43" cx="1.241" cy="1.241" r="1.241" transform="translate(21.896 20.469)" fill="#323232"/>
          </g>
        </g>
      </g>
      <g id="Electric_Plug" data-name="Electric Plug" transform="translate(0 14.876)">
        <path id="Trazado_285" data-name="Trazado 285" d="M10.6,13.856h1.627a.7.7,0,0,0,.7-.7V11.266a.93.93,0,0,0,.7-.9V9.892a2.56,2.56,0,0,0,2.325-2.546V5.487a.7.7,0,0,0-.7-.7h-.232V2.93a.93.93,0,0,0-1.86,0V4.79h-.93V2.93a.93.93,0,1,0-1.86,0V4.79h-.232a.7.7,0,0,0-.7.7v1.86a2.56,2.56,0,0,0,2.325,2.546v.477a.93.93,0,0,0,.7.9v1.892a.232.232,0,0,1-.232.232H10.6a.7.7,0,0,0-.674.869.71.71,0,0,0,.7.525h4.624a.232.232,0,0,1,.232.232v.232a.232.232,0,0,1-.232.232H6.882a1.629,1.629,0,0,1-1.627-1.627V9.439H7.347a.7.7,0,0,0,.7-.7V2.7a.7.7,0,0,0-.7-.7H2.7a.7.7,0,0,0-.7.7V8.742a.7.7,0,0,0,.7.7H4.79v4.417a2.1,2.1,0,0,0,2.092,2.092h8.369a.7.7,0,0,0,.7-.7v-.232a.7.7,0,0,0-.7-.7H10.627a.256.256,0,0,1-.251-.174.224.224,0,0,1,.065-.223A.216.216,0,0,1,10.6,13.856ZM13.623,2.93a.465.465,0,1,1,.93,0V5.487h-.93Zm-2.79,0a.465.465,0,0,1,.93,0V5.487h-.93Zm.932,6.5A2.092,2.092,0,0,1,9.9,7.347V5.487a.232.232,0,0,1,.232-.232h.232V5.72a.232.232,0,0,0,.232.232H12a.232.232,0,0,0,.232-.232V5.255h.93V5.72a.232.232,0,0,0,.232.232h1.395a.232.232,0,0,0,.232-.232V5.255h.232a.232.232,0,0,1,.232.232v1.86a2.092,2.092,0,0,1-1.862,2.078.928.928,0,0,0-1.855,0Zm.463.944v-.93a.465.465,0,1,1,.93,0v.93a.465.465,0,1,1-.93,0ZM2.7,8.974a.232.232,0,0,1-.232-.232V2.7A.232.232,0,0,1,2.7,2.465H7.347a.232.232,0,0,1,.232.232V8.742a.232.232,0,0,1-.232.232Z" transform="translate(-2 -2)" fill="#323232"/>
        <rect id="Rectángulo_1135" data-name="Rectángulo 1135" width="1" transform="translate(10.499 8.008)" fill="#323232"/>
        <path id="Trazado_286" data-name="Trazado 286" d="M11.222,8.97a.232.232,0,0,0-.2-.109H9.862V7.233a.232.232,0,0,0-.179-.225.229.229,0,0,0-.26.121L8.028,9.918a.232.232,0,0,0,.207.337H9.4v1.627a.232.232,0,0,0,.179.225.211.211,0,0,0,.053.007.232.232,0,0,0,.207-.128L11.231,9.2a.234.234,0,0,0-.009-.228ZM9.862,10.9v-.874A.232.232,0,0,0,9.63,9.79H8.611L9.4,8.219v.874a.232.232,0,0,0,.232.232h1.018Z" transform="translate(-6.608 -5.838)" fill="#323232"/>
      </g>
    </g>
  </g>
</svg>
